X:175
T:Scatter the Mud   
B:CRE1.023 (Scaip an Puiteach)
F:file ID: cre.1/175scatt_m
S:Pat Brophy
M:6/8
Q:160
R:jig
K:Am
d|:eAA BAB|eAA AB/^c/d|eAA BAB|dBG G2d|
eAA BAB|eAA AGE|GAB d2e|dBA A3:|
aba g2e|dBG GBd|aba g2e|dBd g3|
aba g2e|dBG AGE|GAB d2e|dBA A3:|

%%%

